resources/icons/20px/paste-variable.svg

<svg width="20" height="20" viewBox="0 0 20 20" fill="none" xmlns="http://www.w3.org/2000/svg">
<path d="M12 1C12.55 1 13 1.45 13 2V4H6V2C6 1.45 6.45 1 7 1H7.78C8.12 0.4 8.76 0 9.5 0C10.24 0 10.87 0.4 11.22 1H12Z" fill="#111418"/>
<path fill-rule="evenodd" clip-rule="evenodd" d="M14 2H16C16.55 2 17 2.45 17 3V19C17 19.55 16.55 20 16 20H3C2.45 20 2 19.55 2 19V3C2 2.45 2.45 2 3 2H5V5H14V2ZM13.9324 14.4918L14.2778 14.6885C13.7127 15.5836 13.1579 16.2131 12.5928 16.5672C12.1741 16.8525 11.7659 16.9902 11.3682 16.9902C10.9496 16.9902 10.6042 16.9016 10.3321 16.7246C10.0599 16.5475 9.80875 16.2525 9.59943 15.8492C9.3901 15.4459 9.13892 14.7967 8.84586 13.9115C8.09229 14.8459 7.49572 15.5246 7.0666 15.9574C6.63749 16.3902 6.28164 16.6754 5.99905 16.8033C5.71646 16.9311 5.41294 17 5.08849 17C4.75357 17 4.49191 16.9016 4.29305 16.7148C4.0942 16.518 4 16.282 4 15.977C4 15.6623 4.10466 15.3967 4.32445 15.1902C4.54424 14.9836 4.81637 14.8754 5.14082 14.8754C5.31874 14.8754 5.5176 14.9246 5.73739 15.023C6.06185 15.1705 6.2921 15.2492 6.43863 15.2492C6.62702 15.2492 6.79448 15.2197 6.94101 15.141C7.1294 15.0525 7.38059 14.8459 7.67364 14.5311C7.86204 14.3344 8.18649 13.9213 8.6784 13.2918C8.06089 11.059 7.56898 9.73115 7.2236 9.28852C7.00381 9.00328 6.72122 8.86557 6.3863 8.86557C6.20837 8.86557 5.99905 8.88525 5.74786 8.93443L5.81066 8.58033L9.20171 8C9.81922 8.93443 10.2483 9.96721 10.4995 11.0885C11.1275 10.1836 11.6089 9.54426 11.9334 9.18033C12.3625 8.68852 12.7184 8.37377 13.001 8.22623C13.2835 8.07869 13.5871 8.00984 13.901 8.00984C14.2569 8.00984 14.529 8.1082 14.7174 8.29508C14.9058 8.48197 15 8.72787 15 9.05246C15 9.35738 14.9058 9.60328 14.7174 9.79016C14.529 9.97705 14.2883 10.0754 14.0057 10.0754C13.7964 10.0754 13.5661 10.0361 13.294 9.96721C13.0324 9.89836 12.844 9.85902 12.7393 9.85902C12.4672 9.85902 12.2055 9.95738 11.9648 10.1443C11.6194 10.4 11.2112 10.9508 10.7193 11.7869C11.274 13.6656 11.7136 14.8164 12.0381 15.2295C12.2369 15.4754 12.4358 15.5934 12.6346 15.5934C12.8021 15.5934 12.9486 15.5541 13.0742 15.4754C13.2521 15.3475 13.5452 15.023 13.9324 14.4918Z" fill="#111418"/>
</svg>

<svg xmlns="http://www.w3.org/2000/svg" viewBox="0 0 20 20">
  <path d="M12 1c.55 0 1 .45 1 1v2H6V2c0-.55.45-1 1-1h.78a1.98 1.98 0 0 1 3.44 0z"/>
  <path d="M14 2h2c.55 0 1 .45 1 1v16c0 .55-.45 1-1 1H3c-.55 0-1-.45-1-1V3c0-.55.45-1 1-1h2v3h9zm-.068 12.492.346.196c-.565.896-1.12 1.525-1.685 1.88q-.628.424-1.225.422-.627 0-1.036-.265c-.272-.178-.523-.473-.733-.876s-.46-1.052-.753-1.937c-.754.934-1.35 1.613-1.78 2.045-.429.433-.784.718-1.067.846a2.2 2.2 0 0 1-.91.197c-.335 0-.597-.098-.796-.285A.98.98 0 0 1 4 15.977c0-.315.105-.58.324-.787a1.15 1.15 0 0 1 .817-.315q.267 0 .596.148c.325.148.555.226.702.226.188 0 .355-.03.502-.108.188-.088.44-.295.733-.61.188-.197.512-.61 1.004-1.24-.617-2.232-1.109-3.56-1.454-4.002a1.01 1.01 0 0 0-.838-.423c-.178 0-.387.02-.638.068l.063-.354L9.2 8a9.2 9.2 0 0 1 1.298 3.089c.628-.905 1.11-1.545 1.434-1.909.43-.491.785-.806 1.068-.954s.586-.216.9-.216c.356 0 .628.098.816.285.189.187.283.433.283.757q0 .457-.283.738a.98.98 0 0 1-.711.285c-.21 0-.44-.039-.712-.108-.262-.069-.45-.108-.555-.108-.272 0-.534.098-.774.285-.346.256-.754.807-1.246 1.643.555 1.879.995 3.03 1.32 3.442.198.246.397.364.596.364a.8.8 0 0 0 .44-.118c.177-.127.47-.452.857-.983"/>
</svg>
